ui/StatusQ/src/assets/img/icons/gallery.svg

<svg fill="none" height="24" viewBox="0 0 24 24" width="24" xmlns="http://www.w3.org/2000/svg"><g fill="#000"><path d="m16.5668 13.9999c1.1045 0 1.8731.6595 1.7166 1.473s-1.1788 1.473-2.2834 1.473-1.8731-.6595-1.7166-1.473 1.1788-1.473 2.2834-1.473z"/><path clip-rule="evenodd" d="m2.51675 14.445.47225 3.1484c.29372 1.958 1.97576 3.4066 3.95575 3.4066h10.11055c1.9799 0 3.662-1.4486 3.9557-3.4066l.4722-3.1484c.2721-1.8138-1.1327-3.445-2.9668-3.445h-13.03284c-1.8341 0-3.23888 1.6312-2.96681 3.445zm2.36987 1.2732c-.30393.1519-.66766-.037-.71807-.3731l-.16839-1.1226c-.13604-.9069.56635-1.7225 1.4834-1.7225h13.03284c.9171 0 1.6195.8156 1.4834 1.7225l-.4722 3.1484c-.1836 1.2238-1.2349 2.1291-2.4723 2.1291h-1.0307c-.1011 0-.1999-.0307-.2833-.088l-6.83029-4.6958c-.52487-.3609-1.20435-.4081-1.77405-.1232zm-.25105 2.2407c-.08902-.2146.02473-.4505.23253-.5544l2.93968-1.4699c.08138-.0407.17845-.0339.25343.0176l3.83379 2.6358c.4047.2782.2078.912-.2832.912h-4.66705c-1.02923 0-1.92965-.6263-2.30918-1.5411z" fill-rule="evenodd"/><path d="m4.36256 8.63874c.06801.45346-.28318.86126-.74171.86126-.37124 0-.68663-.2716-.7417-.63874l-.36243-2.41624c-.27208-1.81381 1.1327-3.44502 2.96681-3.44502h13.03287c1.8341 0 3.2389 1.63121 2.9668 3.44502l-.3624 2.41624c-.0551.36714-.3705.63874-.7417.63874-.4586 0-.8097-.4078-.7417-.86125l.3624-2.41624c.136-.9069-.5663-1.72251-1.4834-1.72251h-13.03287c-.91706 0-1.61944.8156-1.48341 1.72251z"/></g></svg>

<svg width="24" height="24" viewBox="0 0 24 24" fill="none" xmlns="http://www.w3.org/2000/svg">
<path d="M16.5668 13.9999C17.6713 13.9999 18.4399 14.6594 18.2834 15.4729C18.1269 16.2864 17.1046 16.9459 16 16.9459C14.8954 16.9459 14.1269 16.2864 14.2834 15.4729C14.4399 14.6594 15.4622 13.9999 16.5668 13.9999Z" fill="black"/>
<path fill-rule="evenodd" clip-rule="evenodd" d="M2.51675 14.445L2.989 17.5934C3.28272 19.5514 4.96476 21 6.94475 21H17.0553C19.0352 21 20.7173 19.5514 21.011 17.5934L21.4832 14.445C21.7553 12.6312 20.3505 11 18.5164 11H5.48356C3.64946 11 2.24468 12.6312 2.51675 14.445ZM4.88662 15.7182C4.58269 15.8701 4.21896 15.6812 4.16855 15.3451L4.00016 14.2225C3.86412 13.3156 4.56651 12.5 5.48356 12.5H18.5164C19.4335 12.5 20.1359 13.3156 19.9998 14.2225L19.5276 17.3709C19.344 18.5947 18.2927 19.5 17.0553 19.5H16.0246C15.9235 19.5 15.8247 19.4693 15.7413 19.412L8.91101 14.7162C8.38614 14.3553 7.70666 14.3081 7.13696 14.593L4.88662 15.7182ZM4.63557 17.9589C4.54655 17.7443 4.6603 17.5084 4.8681 17.4045L7.80778 15.9346C7.88916 15.8939 7.98623 15.9007 8.06121 15.9522L11.895 18.588C12.2997 18.8662 12.1028 19.5 11.6118 19.5H6.94475C5.91552 19.5 5.0151 18.8737 4.63557 17.9589Z" fill="black"/>
<path d="M4.36256 8.63874C4.43057 9.0922 4.07938 9.5 3.62085 9.5C3.24961 9.5 2.93422 9.2284 2.87915 8.86126L2.51672 6.44502C2.24464 4.63121 3.64942 3 5.48353 3H18.5164C20.3505 3 21.7553 4.63121 21.4832 6.44502L21.1208 8.86126C21.0657 9.2284 20.7503 9.5 20.3791 9.5C19.9205 9.5 19.5694 9.0922 19.6374 8.63875L19.9998 6.22251C20.1358 5.31561 19.4335 4.5 18.5164 4.5H5.48353C4.56647 4.5 3.86409 5.3156 4.00012 6.22251L4.36256 8.63874Z" fill="black"/>
</svg>
